icons/bhi_star-o-circle.svg

<svg xmlns="http://www.w3.org/2000/svg" viewBox="0 0 512 512" enable-background="new 0 0 512 512"><path fill="#010101" d="M256 512c-140.8 0-256-115.2-256-256s115.2-256 256-256 256 115.2 256 256-115.2 256-256 256zm0-473.6c-119.5 0-217.6 98.1-217.6 217.6s98.1 217.6 217.6 217.6 217.6-98.1 217.6-217.6-98.1-217.6-217.6-217.6zM256 166.4l21.3 44.8 6.4 12.8 14.9 2.1 49.1 6.4-34.1 34.1-12.8 10.7 2.1 12.8 8.5 49.1-42.7-23.5-12.8-6.4-12.8 6.4-42.7 23.5 8.5-49.1v-12.8l-10.7-10.7-34.1-34.1 49.1-6.4 14.9-2.1 6.4-12.8 21.5-44.8m0-59.7l-46.9 91.7-102.4 14.9 74.7 72.5-17.1 102.4 91.7-46.9 91.7 46.9-17.1-102.4 74.7-72.5-102.4-14.9-46.9-91.7z"/></svg>

<?xml version="1.0" encoding="utf-8"?>
<!-- Generator: Adobe Illustrator 19.2.0, SVG Export Plug-In . SVG Version: 6.00 Build 0)  -->
<svg version="1.1" id="Layer_1" xmlns="http://www.w3.org/2000/svg" xmlns:xlink="http://www.w3.org/1999/xlink" x="0px" y="0px"
	 viewBox="0 0 512 512" enable-background="new 0 0 512 512" xml:space="preserve">
<g>
	<path fill="#010101" d="M256,512C115.2,512,0,396.8,0,256S115.2,0,256,0s256,115.2,256,256S396.8,512,256,512z M256,38.4
		C136.5,38.4,38.4,136.5,38.4,256S136.5,473.6,256,473.6S473.6,375.5,473.6,256S375.5,38.4,256,38.4z"/>
</g>
<path fill="#010101" d="M256,166.4l21.3,44.8l6.4,12.8l14.9,2.1l49.1,6.4l-34.1,34.1l-12.8,10.7l2.1,12.8l8.5,49.1l-42.7-23.5
	l-12.8-6.4l-12.8,6.4l-42.7,23.5l8.5-49.1l0-12.8l-10.7-10.7l-34.1-34.1l49.1-6.4l14.9-2.1l6.4-12.8L256,166.4 M256,106.7
	l-46.9,91.7l-102.4,14.9l74.7,72.5l-17.1,102.4l91.7-46.9l91.7,46.9l-17.1-102.4l74.7-72.5l-102.4-14.9L256,106.7L256,106.7z"/>
</svg>
